src/assets/filled/Map.svg

<svg width="24" height="24" viewBox="0 0 24 24"  xmlns="http://www.w3.org/2000/svg">
<path d="M9.1499 7.49023C8.5899 7.49023 8.1499 7.94023 8.1499 8.49023C8.1499 9.04023 8.5999 9.49023 9.1499 9.49023C9.6999 9.49023 10.1499 9.04023 10.1499 8.49023C10.1499 7.94023 9.6999 7.49023 9.1499 7.49023Z" />
<path d="M21.46 5.04C20.62 3.09 18.77 2 16.19 2H7.81C4.6 2 2 4.6 2 7.81V16.19C2 18.77 3.09 20.62 5.04 21.46C5.23 21.54 5.45 21.49 5.59 21.35L21.35 5.59C21.5 5.44 21.55 5.22 21.46 5.04ZM10.53 12.24C10.14 12.62 9.63 12.8 9.12 12.8C8.61 12.8 8.1 12.61 7.71 12.24C6.69 11.28 5.57 9.75 6 7.93C6.38 6.28 7.84 5.54 9.12 5.54C10.4 5.54 11.86 6.28 12.24 7.94C12.66 9.75 11.54 11.28 10.53 12.24Z" />
<path d="M19.4699 20.53C19.6899 20.75 19.6599 21.11 19.3899 21.26C18.5099 21.75 17.4399 22 16.1899 22H7.8099C7.5199 22 7.3999 21.66 7.5999 21.46L13.6399 15.42C13.8399 15.22 14.1499 15.22 14.3499 15.42L19.4699 20.53Z" />
<path d="M22 7.8099V16.1899C22 17.4399 21.75 18.5199 21.26 19.3899C21.11 19.6599 20.75 19.6799 20.53 19.4699L15.41 14.3499C15.21 14.1499 15.21 13.8399 15.41 13.6399L21.45 7.5999C21.66 7.3999 22 7.5199 22 7.8099Z" />
</svg>

<?xml version="1.0" encoding="UTF-8"?>
<svg width="24" height="24" viewBox="0 0 24 24" xmlns="http://www.w3.org/2000/svg">
 <path d="m9.1499 7.4902c-0.56 0-1 0.45-1 1s0.45 1 1 1 1-0.45 1-1-0.45-1-1-1z"/>
 <path d="m21.46 5.04c-0.84-1.95-2.69-3.04-5.27-3.04h-8.38c-3.21 0-5.81 2.6-5.81 5.81v8.38c0 2.58 1.09 4.43 3.04 5.27 0.19 0.08 0.41 0.03 0.55-0.11l15.76-15.76c0.15-0.15 0.2-0.37 0.11-0.55zm-10.93 7.2c-0.39 0.38-0.9 0.56-1.41 0.56s-1.02-0.19-1.41-0.56c-1.02-0.96-2.14-2.49-1.71-4.31 0.38-1.65 1.84-2.39 3.12-2.39s2.74 0.74 3.12 2.4c0.42 1.81-0.7 3.34-1.71 4.3z"/>
 <path d="m19.47 20.53c0.22 0.22 0.19 0.58-0.08 0.73-0.88 0.49-1.95 0.74-3.2 0.74h-8.38c-0.29 0-0.41-0.34-0.21-0.54l6.04-6.04c0.2-0.2 0.51-0.2 0.71 0l5.12 5.11z"/>
 <path d="m22 7.8099v8.38c0 1.25-0.25 2.33-0.74 3.2-0.15 0.27-0.51 0.29-0.73 0.08l-5.12-5.12c-0.2-0.2-0.2-0.51 0-0.71l6.04-6.04c0.21-0.2 0.55-0.08 0.55 0.21z"/>
</svg>
